status/16/firewall-applet-panic.svg

<svg height="16" width="16" xmlns="http://www.w3.org/2000/svg">
    <defs id="defs1">
        <style type="text/css" id="current-color-scheme">
            .ColorScheme-Text {
                color:#eff0f1;
            }
            .ColorScheme-NeutralText {
                color:#f67400;
            }
        </style>
    </defs>
    <path style="fill:currentColor;fill-opacity:1;stroke:none" class="ColorScheme-Text" d="M2 2v3h6V2zm7 0v3h5V2zM2 6v3h2V6zm3 0v3h1V6zm-3 4v3h4v-3z"/>
    <path style="fill:currentColor;fill-opacity:1;stroke:none" class="ColorScheme-NeutralText" d="M8 6c-.554 0-1 .446-1 1v6c0 .554.446 1 1 1h6c.554 0 1-.446 1-1V7c0-.554-.446-1-1-1z"/>
    <path d="M11 7a2 2 0 0 0-2 2l.002 1H8v3h6v-3h-1V9a2 2 0 0 0-2-2zm0 1a1 1 0 0 1 1 1v1h-2V9a1 1 0 0 1 1-1z" fill="#fff"/>
</svg>

<svg height="16" width="16" xmlns="http://www.w3.org/2000/svg">
    <defs id="defs1">
        <style type="text/css" id="current-color-scheme">.ColorScheme-Text {color:#fcfcfc;}.ColorScheme-NeutralText {color:#f67400;}</style>
    </defs>
    <path style="fill:currentColor;fill-opacity:1;stroke:none" class="ColorScheme-Text" d="M 2,4 C 2,6 2,5 2,5 H 8 V 2 H 4 C 4,2 2,2 2,4 Z M 9,2 v 3 h 5 C 14,5 14,6 14,4 14,2 12,2 12,2 Z M 2,6 V 9 H 4 V 6 Z M 5,6 V 9 H 6 V 6 Z m -3,4 v 1 c 0,0 0,2 2,2 2,0 2,0 2,0 v -3 z"/>
    <path style="fill:currentColor;fill-opacity:1;stroke:none" class="ColorScheme-NeutralText" d="M8 6c-.554 0-1 .446-1 1v6c0 .554.446 1 1 1h6c.554 0 1-.446 1-1V7c0-.554-.446-1-1-1z"/>
    <path d="M 11,7 C 9.8954305,7 9,7.8954305 9,9 l 0.002,1 C 9.002,10 8,10 8,11 c 0,1 0,0 0,1 0,1 1,1 1,1 h 4 c 0,0 1,0 1,-1 0,-1 0,0 0,-1 0,-1 -1,-1 -1,-1 V 9 C 13,7.8954305 12.104569,7 11,7 Z m 0,1 c 0.552285,0 1,0.4477153 1,1 v 1 H 10 V 9 c 0,-0.5522847 0.447715,-1 1,-1 z" fill="#fff"/>
</svg>
